X:1
T:Title
%%score { ( 1 3 ) | ( 2 4 ) }
L:1/8
M:3/4
K:G
V:1 treble nm="Grand Piano"
V:3 treble 
V:2 bass 
V:4 bass 
V:1
 z2 z2[Q:1/4=100] [B,D][B,D] | [B,G]2 [B,G]2 [B,G][DB] | z2 A2[K:bass][K:treble] z2 | d3 B AG | %4
[M:2/4] B2 A2 |[M:1/4] BA |[M:3/4] [B,G]2 [B,D]2 [CE]G | D2 [B,G]2 [DG][EA] | Bc B2 A2 | %9
[M:2/4] [B,G]4 |[M:1/4] Bc |[M:3/4] d2 d2 cB | c2 c2 BA | B3 B AG |[M:2/4] B2 A2 |[M:1/4] BA | %16
[M:3/4] [B,G]2 [B,D]2 [CE]G | D2 [B,G]2 [DG][EA] | Bc B2 A2 |[M:6/4] .[B,G]6 z6 |] %20
V:2
 z2 z2 [G,,G,][G,,G,] | [G,,D,]2 [G,,D,]2 [G,,D,][G,,G,] | [D,F,D]2 .[D,F,D]2 [B,,G,][A,,A,] | %3
 [G,,B,D]3 [G,D] [F,A,D][E,A,^C] |[M:2/4] [D,D]2- [D,F,D]2 |[M:1/4] [D,D][D,C] | %6
[M:3/4] z2 z2 [C,G,]2 | [G,B,]2 [G,,D,]2 [B,,G,][C,G,] | [D,G,D][D,A,D] [D,G,D]2 [D,F,C]2 | %9
[M:2/4] [G,,G,]4 |[M:1/4] [G,D][G,A,D] |[M:3/4] [G,B,D]2 [G,B,D]2 [G,A,D][G,D] | %12
 [F,A,D]2 [F,A,D]2 [D,G,D][D,F,D] | [G,D]3 [G,D] [F,A,D][E,A,^C] |[M:2/4] [D,D]2- [D,F,D]2 | %15
[M:1/4] [D,D][D,C] |[M:3/4] z2 z2 [C,G,]2 | [G,B,]2 [G,,D,]2 [B,,G,][C,G,] | %18
 [D,G,D][D,A,D] [D,G,D]2 [D,F,C]2 |[M:6/4] .[G,,G,]6 z6 |] %20
V:3
 x6 | x6 | A2 z[K:bass] C,[K:treble] [DB][Dc] | x6 |[M:2/4] x4 |[M:1/4] x2 |[M:3/4] x6 | x6 | x6 | %9
[M:2/4] x4 |[M:1/4] x2 |[M:3/4] x6 | x6 | x6 |[M:2/4] x4 |[M:1/4] x2 |[M:3/4] x6 | x6 | x6 | %19
[M:6/4] x12 |] %20
V:4
 x6 | x6 | x6 | x6 |[M:2/4] G,2 z2 |[M:1/4] x2 |[M:3/4] [G,,D,]2 [G,,G,]2 z C | x6 | x6 | %9
[M:2/4] x4 |[M:1/4] x2 |[M:3/4] x6 | x6 | x6 |[M:2/4] G,2 z2 |[M:1/4] x2 | %16
[M:3/4] [G,,D,]2 [G,,G,]2 z C | x6 | x6 |[M:6/4] x12 |] %20

